material/.icons/material/image-move.svg

<svg xmlns="http://www.w3.org/2000/svg" viewBox="0 0 24 24"><path d="M15 3h4V0l5 5-5 5V7h-4V3m6 8.94V19a2 2 0 01-2 2H5a2 2 0 01-2-2V5a2 2 0 012-2h7.06c-.06.33-.06.67-.06 1a8 8 0 008 8c.33 0 .67 0 1-.06M19 18l-4.5-6-3.5 4.5-2.5-3L5 18h14z"/></svg>

<?xml version="1.0" encoding="UTF-8"?><!DOCTYPE svg PUBLIC "-//W3C//DTD SVG 1.1//EN" "http://www.w3.org/Graphics/SVG/1.1/DTD/svg11.dtd"><svg xmlns="http://www.w3.org/2000/svg" xmlns:xlink="http://www.w3.org/1999/xlink" version="1.1" id="mdi-image-move" width="24" height="24" viewBox="0 0 24 24"><path d="M15,3H19V0L24,5L19,10V7H15V3M21,11.94V19A2,2 0 0,1 19,21H5A2,2 0 0,1 3,19V5A2,2 0 0,1 5,3H12.06C12,3.33 12,3.67 12,4A8,8 0 0,0 20,12C20.33,12 20.67,12 21,11.94M19,18L14.5,12L11,16.5L8.5,13.5L5,18H19Z" /></svg>
